X: 34884
T: Robin On The Gate, The
R: reel
M: 4/4
K: Edorian
dc|BEGA BAGB|AdAG F2 DF|GFGA BABc|(3def eg fddc|
BEGA BAGB|AdAG F2 DF|GEGA BEec|(3dcB AF E2:|
GA|Beed gfeg|abaf gfed|Bddc fedc|B2 GF EFGA|
Beed gfeg|abaf gedB|GEGA BEec|(3dcB AF E2:|

